Gruvbox-Plus-Dark/apps/scalable/applications-education-language.svg

<svg xmlns="http://www.w3.org/2000/svg" style="isolation:isolate" width="256" height="256" viewBox="0 0 256 256">
 <g filter="url(#tfbcCLg2etCTE4CxWoq5ZkBH79R55IeA)">
  <linearGradient id="_lgradient_4" x1=".993" x2=".002" y1=".988" y2=".193" gradientTransform="matrix(244.648309,0,0,228.338396,5.681691,11.95)" gradientUnits="userSpaceOnUse">
   <stop offset="0%" style="stop-color:#3c3836"/>
   <stop offset="100%" style="stop-color:#665c54"/>
  </linearGradient>
  <path fill="url(#_lgradient_4)" d="M 165.690609 11.95 C 239.746317 11.95 250.33 22.507198 250.33 96.493859 L 250.33 155.744653 C 250.33 229.73091 239.746317 240.288396 165.690609 240.288396 L 90.321084 240.288396 C 16.26538 240.288396 5.681691 229.73091 5.681691 155.744653 L 5.681691 96.493859 C 5.681691 22.507198 16.26538 11.95 90.321084 11.95 L 165.690609 11.95 Z"/>
 </g>
 <path fill="#fabd2f" fill-rule="evenodd" d="M 165.688919 11.95 C 239.744626 11.95 250.328309 22.507198 250.328309 96.493859 L 250.328309 155.744653 C 250.328309 229.73091 239.744626 240.288396 165.688919 240.288396 L 90.319393 240.288396 C 16.26369 240.288396 5.68 229.73091 5.68 155.744653 L 5.68 96.493859 C 5.68 22.507198 16.26369 11.95 90.319393 11.95 L 165.688919 11.95 Z M 165.7 21.95 C 170.01 21.95 174.32 21.99 178.63 22.08 C 182.43 22.17 186.23 22.32 190.02 22.53 C 193.33 22.72 196.62 22.99 199.91 23.35 C 202.74 23.66 205.55 24.07 208.34 24.59 C 210.69 25.02 213.02 25.58 215.32 26.25 C 217.23 26.81 219.1 27.5 220.92 28.32 C 222.44 29 223.9 29.81 225.29 30.74 C 226.52 31.57 227.66 32.51 228.71 33.55 C 229.76 34.6 230.7 35.74 231.53 36.97 C 232.46 38.35 233.27 39.81 233.95 41.33 C 234.77 43.15 235.46 45.01 236.02 46.92 C 236.69 49.21 237.25 51.54 237.68 53.89 C 238.2 56.68 238.62 59.49 238.92 62.31 C 239.28 65.59 239.56 68.89 239.75 72.19 C 239.96 75.98 240.11 79.77 240.19 83.57 C 240.29 87.87 240.33 92.18 240.33 96.48 C 240.33 96.49 240.33 96.49 240.33 96.49 L 240.33 155.74 C 240.33 155.75 240.33 155.75 240.33 155.76 C 240.33 160.06 240.29 164.37 240.19 168.67 C 240.11 172.47 239.96 176.26 239.75 180.05 C 239.56 183.35 239.28 186.65 238.92 189.93 C 238.62 192.75 238.2 195.56 237.68 198.35 C 237.25 200.7 236.69 203.02 236.02 205.32 C 235.46 207.23 234.77 209.09 233.95 210.91 C 233.27 212.43 232.46 213.88 231.53 215.27 C 230.7 216.49 229.76 217.64 228.71 218.69 C 227.66 219.73 226.52 220.67 225.29 221.5 C 223.9 222.43 222.44 223.24 220.92 223.92 C 219.1 224.74 217.23 225.43 215.32 225.99 C 213.02 226.66 210.69 227.22 208.34 227.65 C 205.55 228.17 202.74 228.58 199.91 228.89 C 196.62 229.25 193.32 229.52 190.02 229.71 C 186.23 229.92 182.43 230.07 178.63 230.15 C 174.32 230.25 170.01 230.29 165.7 230.29 C 165.7 230.29 165.69 230.29 165.69 230.29 L 90.32 230.29 C 90.32 230.29 90.31 230.29 90.31 230.29 C 86 230.29 81.69 230.25 77.38 230.15 C 73.58 230.07 69.78 229.92 65.99 229.71 C 62.68 229.52 59.38 229.25 56.09 228.89 C 53.27 228.58 50.46 228.17 47.67 227.65 C 45.31 227.22 42.98 226.66 40.69 225.99 C 38.78 225.43 36.9 224.74 35.09 223.92 C 33.57 223.24 32.1 222.43 30.72 221.5 C 29.49 220.67 28.34 219.73 27.3 218.69 C 26.25 217.64 25.31 216.49 24.48 215.27 C 23.55 213.88 22.74 212.43 22.05 210.91 C 21.24 209.09 20.55 207.23 19.99 205.32 C 19.31 203.02 18.76 200.7 18.32 198.35 C 17.81 195.56 17.39 192.75 17.09 189.93 C 16.72 186.65 16.45 183.35 16.26 180.05 C 16.05 176.26 15.9 172.47 15.81 168.67 C 15.72 164.37 15.68 160.06 15.68 155.76 C 15.68 155.75 15.68 155.75 15.68 155.74 L 15.68 96.49 C 15.68 96.49 15.68 96.49 15.68 96.48 C 15.68 92.18 15.72 87.87 15.81 83.57 C 15.9 79.77 16.05 75.98 16.26 72.19 C 16.45 68.89 16.72 65.59 17.09 62.31 C 17.39 59.49 17.81 56.68 18.32 53.89 C 18.76 51.54 19.31 49.21 19.99 46.92 C 20.55 45.01 21.24 43.15 22.05 41.33 C 22.74 39.81 23.55 38.35 24.48 36.97 C 25.31 35.74 26.25 34.6 27.3 33.55 C 28.34 32.51 29.49 31.57 30.72 30.74 C 32.1 29.81 33.57 29 35.09 28.32 C 36.9 27.5 38.78 26.81 40.69 26.25 C 42.98 25.58 45.31 25.02 47.67 24.59 C 50.46 24.07 53.27 23.66 56.09 23.35 C 59.38 22.99 62.68 22.72 65.99 22.53 C 69.78 22.32 73.58 22.17 77.38 22.08 C 81.69 21.99 86 21.95 90.31 21.95 C 90.31 21.95 90.32 21.95 90.32 21.95 L 165.69 21.95 C 165.69 21.95 165.7 21.95 165.7 21.95 Z"/>
 <g opacity=".4">
  <linearGradient id="_lgradient_5" x1=".517" x2=".517" y1="0" y2="1" gradientTransform="matrix(244.65,0,0,228.34,5.68,11.95)" gradientUnits="userSpaceOnUse">
   <stop offset="0%" style="stop-color:#ebdbb2"/>
   <stop offset="12.5%" stop-opacity=".098" style="stop-color:#ebdbb2"/>
   <stop offset="92.5%" stop-opacity=".098" style="stop-color:#282828"/>
   <stop offset="100%" stop-opacity=".498" style="stop-color:#282828"/>
  </linearGradient>
  <path fill="url(#_lgradient_5)" fill-rule="evenodd" d="M 165.06803 11.951234 C 169.395994 11.941409 173.723944 11.990533 178.051908 12.088781 C 181.927398 12.167379 185.802873 12.31475 189.678362 12.540721 C 193.1309 12.737216 196.583423 13.022134 200.026115 13.395476 C 203.085193 13.729518 206.144271 14.181458 209.173842 14.741469 C 211.888645 15.242533 214.57394 15.881143 217.219897 16.6573 C 219.619947 17.354858 221.970814 18.219439 224.242988 19.241215 C 226.357793 20.184394 228.384061 21.304417 230.302129 22.591462 C 232.141505 23.829383 233.862851 25.244151 235.436659 26.80629 C 237.000621 28.378252 238.417046 30.087764 239.656409 31.924995 C 240.944972 33.840824 242.066305 35.864728 243.020409 37.967229 C 244.043389 40.246576 244.908985 42.584873 245.617197 44.972292 C 246.394255 47.615155 247.033606 50.297317 247.535265 53.008956 C 248.095924 56.034984 248.548399 59.080665 248.882828 62.13617 C 249.256611 65.574836 249.541856 69.013506 249.738578 72.462003 C 249.964823 76.323139 250.112361 80.194101 250.200884 84.055237 C 250.289421 88.378131 250.338591 92.701032 250.32876 97.014106 L 250.32876 155.225886 C 250.338591 159.54878 250.289421 163.861854 250.200884 168.184747 C 250.112361 172.05571 249.964823 175.916853 249.738578 179.777981 C 249.541856 183.226485 249.256611 186.674975 248.882828 190.103826 C 248.548399 193.15933 248.095924 196.214835 247.535265 199.240851 C 247.033606 201.942664 246.394255 204.624837 245.617197 207.267703 C 244.908985 209.655115 244.043389 212.003235 243.020409 214.272755 C 242.066305 216.38509 240.944972 218.399156 239.656409 220.314999 C 238.417046 222.152226 237.000621 223.871561 235.436659 225.433697 C 233.862851 226.995832 232.141505 228.410601 230.302129 229.648532 C 228.384061 230.935575 226.357793 232.055598 224.242988 232.998768 C 221.970814 234.020552 219.619947 234.885137 217.219897 235.592507 C 214.57394 236.368672 211.888645 237.007276 209.173842 237.498515 C 206.144271 238.068354 203.085193 238.510465 200.026115 238.844519 C 196.583423 239.21785 193.1309 239.502777 189.678362 239.699269 C 185.802873 239.925235 181.927398 240.072615 178.051908 240.161035 C 173.723944 240.249454 169.395994 240.298581 165.06803 240.288762 L 90.941963 240.288762 C 86.614006 240.298581 82.286049 240.249454 77.9581 240.161035 C 74.08261 240.072615 70.20712 239.925235 66.331638 239.699269 C 62.879108 239.502777 59.426578 239.21785 55.983886 238.844519 C 52.924808 238.510465 49.865733 238.068354 46.836162 237.498515 C 44.121356 237.007276 41.436057 236.368672 38.7901 235.592507 C 36.390053 234.885137 34.039187 234.020552 31.767009 232.998768 C 29.652213 232.055598 27.625943 230.935575 25.707871 229.648532 C 23.868489 228.410601 22.147143 226.995832 20.573343 225.433697 C 19.009377 223.871561 17.592955 222.152226 16.353586 220.314999 C 15.065036 218.399156 13.943701 216.38509 12.989584 214.272755 C 11.966612 212.003235 11.101021 209.655115 10.392811 207.267703 C 9.615746 204.624837 8.976389 201.942664 8.47474 199.240851 C 7.914072 196.214835 7.461604 193.15933 7.127172 190.103826 C 6.753394 186.674975 6.468142 183.226485 6.271417 179.777981 C 6.045183 175.916853 5.897639 172.05571 5.809112 168.184747 C 5.720586 163.861854 5.671405 159.54878 5.681241 155.225886 L 5.681241 97.014106 C 5.671405 92.701032 5.720586 88.378131 5.809112 84.055237 C 5.897639 80.194101 6.045183 76.323139 6.271417 72.462003 C 6.468142 69.013506 6.753394 65.574836 7.127172 62.13617 C 7.461604 59.080665 7.914072 56.034984 8.47474 53.008956 C 8.976389 50.297317 9.615746 47.615155 10.392811 44.972292 C 11.101021 42.584873 11.966612 40.246576 12.989584 37.967229 C 13.943701 35.864728 15.065036 33.840824 16.353586 31.924995 C 17.592955 30.087764 19.009377 28.378252 20.573343 26.80629 C 22.147143 25.244151 23.868489 23.829383 25.707871 22.591462 C 27.625943 21.304417 29.652213 20.184394 31.767009 19.241215 C 34.039187 18.219439 36.390053 17.354858 38.7901 16.6573 C 41.436057 15.881143 44.121356 15.242533 46.836162 14.741469 C 49.865733 14.181458 52.924808 13.729518 55.983886 13.395476 C 59.426578 13.022134 62.879108 12.737216 66.331638 12.540721 C 70.20712 12.31475 74.08261 12.167379 77.9581 12.088781 C 82.286049 11.990533 86.614006 11.941409 90.941963 11.951234 L 165.06803 11.951234 Z M 165.077876 15.959741 C 169.376317 15.949916 173.674759 15.99904 177.973216 16.087463 C 181.799522 16.175886 185.625827 16.323257 189.452133 16.539402 C 192.835809 16.735898 196.219486 17.010992 199.583486 17.384332 C 202.554026 17.698726 205.514751 18.131016 208.445953 18.681203 C 211.023049 19.152792 213.580483 19.761928 216.098564 20.498786 C 218.321569 21.147221 220.495374 21.952852 222.600334 22.896029 C 224.508571 23.750785 226.338116 24.762737 228.069293 25.922059 C 229.692286 27.012609 231.207063 28.260355 232.59398 29.645648 C 233.980897 31.030941 235.230091 32.543956 236.331763 34.165043 C 237.492434 35.894202 238.505568 37.711787 239.361333 39.607968 C 240.305606 41.720292 241.112187 43.891565 241.761369 46.102139 C 242.508934 48.617282 243.108947 51.161898 243.590914 53.735987 C 244.131912 56.663768 244.564709 59.6112 244.889308 62.578282 C 245.263091 65.938355 245.538505 69.308252 245.735227 72.687976 C 245.951626 76.509812 246.10901 80.321821 246.187687 84.143656 C 246.276225 88.437084 246.325394 92.720685 246.325394 97.014106 C 246.325394 97.014106 246.325394 97.014106 246.325394 97.014106 L 246.325394 155.225886 C 246.325394 155.225886 246.325394 155.225886 246.325394 155.225886 C 246.325394 159.519306 246.276225 163.802907 246.187687 168.096328 C 246.10901 171.918164 245.951626 175.739999 245.735227 179.552015 C 245.538505 182.931739 245.263091 186.301629 244.889308 189.671533 C 244.564709 192.628784 244.131912 195.576216 243.590914 198.503994 C 243.108947 201.078094 242.508934 203.622706 241.761369 206.137845 C 241.112187 208.358253 240.305606 210.5197 239.361333 212.63202 C 238.505568 214.528209 237.492434 216.355617 236.331763 218.074952 C 235.230091 219.705853 233.980897 221.218876 232.59398 222.604172 C 231.207063 223.979634 229.692286 225.227385 228.069293 226.317935 C 226.338116 227.477251 224.508571 228.489201 222.600334 229.343951 C 220.495374 230.296956 218.321569 231.092775 216.098564 231.741198 C 213.580483 232.478056 211.023049 233.087202 208.445953 233.558787 C 205.514751 234.108972 202.554026 234.541264 199.583486 234.865483 C 196.219486 235.228995 192.835809 235.513922 189.452133 235.70058 C 185.625827 235.916726 181.799522 236.073926 177.973216 236.152526 C 173.674759 236.25078 169.376317 236.290072 165.077876 236.290072 C 165.077876 236.290072 165.077876 236.290072 165.06803 236.290072 L 90.941963 236.290072 C 90.932125 236.290072 90.932125 236.290072 90.932125 236.290072 C 86.633683 236.290072 82.335234 236.25078 78.036784 236.152526 C 74.210479 236.073926 70.384173 235.916726 66.557868 235.70058 C 63.174195 235.513922 59.790522 235.228995 56.426518 234.865483 C 53.455967 234.541264 50.495253 234.108972 47.564048 233.558787 C 44.986944 233.087202 42.429517 232.478056 39.911433 231.741198 C 37.688439 231.092775 35.514626 230.296956 33.409665 229.343951 C 31.501429 228.489201 29.671886 227.477251 27.940703 226.317935 C 26.31772 225.227385 24.802935 223.979634 23.416022 222.604172 C 22.029109 221.218876 20.779904 219.705853 19.678243 218.074952 C 18.517564 216.355617 17.504428 214.528209 16.648674 212.63202 C 15.704392 210.5197 14.897819 208.358253 14.248626 206.137845 C 13.50107 203.622706 12.901057 201.078094 12.419081 198.503994 C 11.878086 195.576216 11.445291 192.628784 11.120694 189.671533 C 10.746916 186.301629 10.471501 182.931739 10.274776 179.552015 C 10.058378 175.739999 9.900997 171.918164 9.822307 168.096328 C 9.733781 163.802907 9.6846 159.519306 9.6846 155.225886 C 9.6846 155.225886 9.6846 155.225886 9.6846 155.225886 L 9.6846 97.014106 C 9.6846 97.014106 9.6846 97.014106 9.6846 97.014106 C 9.6846 92.720685 9.733781 88.437084 9.822307 84.143656 C 9.900997 80.321821 10.058378 76.509812 10.274776 72.687976 C 10.471501 69.308252 10.746916 65.938355 11.120694 62.578282 C 11.445291 59.6112 11.878086 56.663768 12.419081 53.735987 C 12.901057 51.161898 13.50107 48.617282 14.248626 46.102139 C 14.897819 43.891565 15.704392 41.720292 16.648674 39.607968 C 17.504428 37.711787 18.517564 35.894202 19.678243 34.165043 C 20.779904 32.543956 22.029109 31.030941 23.416022 29.645648 C 24.802935 28.260355 26.31772 27.012609 27.940703 25.922059 C 29.671886 24.762737 31.501429 23.750785 33.409665 22.896029 C 35.514626 21.952852 37.688439 21.147221 39.911433 20.498786 C 42.429517 19.761928 44.986944 19.152792 47.564048 18.681203 C 50.495253 18.131016 53.455967 17.698726 56.426518 17.384332 C 59.790522 17.010992 63.174195 16.735898 66.557868 16.539402 C 70.384173 16.323257 74.210479 16.175886 78.036784 16.087463 C 82.335234 15.99904 86.633683 15.949916 90.932125 15.959741 C 90.932125 15.959741 90.932125 15.959741 90.941963 15.959741 L 165.06803 15.959741 C 165.077876 15.959741 165.077876 15.959741 165.077876 15.959741 Z"/>
 </g>
 <path fill="#458588" d="M 127.169998 225.059998 L 147.169998 225.059998 L 147.169998 230.059998 L 127.169998 230.059998 L 127.169998 225.059998 L 127.169998 225.059998 Z"/>
 <path fill="#ebdbb2" d="M 154.889999 225.369995 L 174.889999 225.369995 L 174.889999 230.369995 L 154.889999 230.369995 L 154.889999 225.369995 Z"/>
 <path fill="#ebdbb2" d="M 171.499551 133.25 L 171.499551 191.25 L 142.499551 191.25 L 142.499551 198.5 L 207.749551 198.5 L 207.749551 191.25 L 178.749551 191.25 L 178.749551 155 L 207.749551 155 L 207.749551 147.75 L 178.749551 147.75 L 178.749551 133.25 L 171.499551 133.25 Z M 62.750449 133.25 L 62.750449 169.5 L 84.500449 169.5 L 84.500449 176.75 L 48.250449 176.75 L 48.250449 184 L 84.500449 184 L 84.500449 198.5 L 91.750449 198.5 L 91.750449 184 L 128.000449 184 L 128.000449 176.75 L 91.750449 176.75 L 91.750449 169.5 L 113.500449 169.5 L 113.500449 133.25 L 62.750449 133.25 Z M 70.000449 140.5 L 106.250449 140.5 L 106.250449 147.75 L 70.000449 147.75 L 70.000449 140.5 Z M 70.000449 155 L 106.250449 155 L 106.250449 162.25 L 70.000449 162.25 L 70.000449 155 Z M 157.000449 89.765405 L 157.000449 111.495471 L 172.738384 111.495471 C 177.487139 111.495471 180.998858 110.519437 183.27083 108.567375 C 185.572699 106.585409 186.723641 103.570313 186.723641 99.52028 C 186.723641 95.441249 185.572699 94.616565 183.27083 92.693501 C 180.998858 90.741439 177.487139 89.765405 172.738384 89.765405 L 157.000449 89.765405 M 157.000449 60.755438 L 157.000449 82.597877 L 173.094546 82.597877 C 177.406479 82.597877 180.856579 81.796749 182.95455 80.194501 C 185.081519 78.562343 186.14454 73.90966 186.145453 70.588253 C 186.145453 67.295843 185.081519 64.834469 182.95455 63.202314 C 180.856579 61.570155 177.406479 60.755438 173.094546 60.755438 L 157.000449 60.755438 Z M 149.750449 53.5 L 172.301577 53.5 C 179.031385 53.5 184.21786 54.898343 187.860076 57.695938 C 191.502292 60.492625 193.322951 64.470156 193.322951 69.626717 C 193.322951 73.618747 192.390414 78.971065 190.525352 81.330937 C 188.661204 83.690815 185.922513 85.162566 182.309295 85.744377 C 191.350043 87.989156 195.828732 94.23684 196.032644 100.481815 C 196.032644 106.309003 194.051577 110.810342 190.088545 113.986753 C 186.126425 117.162251 180.488636 118.75 173.175206 118.75 L 149.750449 118.75 L 149.750449 53.5 Z M 98.789292 90.270185 C 92.56517 72.277501 88.774328 62.981189 88.125449 60.75 C 88.125449 60.75 84.894666 70.046315 77.726232 90.270185 L 98.789292 90.270185 L 98.789292 90.270185 Z M 108.922978 118.75 L 101.267886 96.653809 L 75.159731 96.653809 L 67.239105 118.75 L 59.450794 118.75 L 84.584733 53.5 L 92.417449 53.5 L 116.799199 118.75 L 108.922978 118.75 Z"/>
</svg>

<svg width="256" height="256" version="1.1" xmlns="http://www.w3.org/2000/svg">
  <defs>
    <linearGradient id="linearGradient31" x1=".5002" x2=".5002" y2="1" gradientTransform="matrix(244,0,0,228,5.986,12)" gradientUnits="userSpaceOnUse">
      <stop stop-color="#ebdbb2" stop-opacity=".4" offset="0"/>
      <stop stop-color="#ebdbb2" stop-opacity=".2" offset=".1"/>
      <stop stop-opacity="0" offset=".7036"/>
      <stop stop-opacity=".1" offset=".8975"/>
      <stop stop-opacity=".2" offset="1"/>
    </linearGradient>
    <linearGradient id="linearGradient8" x1="140" x2="140" y1="12" y2="240" gradientTransform="matrix(.92073 0 0 .92073 10.146 9.9876)" gradientUnits="userSpaceOnUse">
      <stop stop-color="#504945" offset="0"/>
      <stop stop-color="#3c3836" offset="1"/>
    </linearGradient>
    <linearGradient id="linearGradient9" x1="140" x2="140" y1="12" y2="240" gradientUnits="userSpaceOnUse">
      <stop stop-color="#fabd2f" offset="0"/>
      <stop stop-color="#d79921" offset="1"/>
    </linearGradient>
  </defs>
  <path d="m165 12c72 0 85 15 85 87v56c0 70-13 85-85 85h-74c-72 0-85-15-85-85v-56c0-72 13-87 85-87z" fill="url(#linearGradient9)" style="isolation:isolate"/>
  <path d="m162.07 21.036c66.293 0 78.262 13.811 78.262 80.104v51.561c0 64.451-11.97 78.262-78.262 78.262h-68.134c-66.293 0-78.262-13.811-78.262-78.262v-51.561c0-66.293 11.97-80.104 78.262-80.104z" fill="url(#linearGradient8)" stroke-width=".92073" style="isolation:isolate"/>
  <path d="m118 225.96h20v5h-20z" fill="#458588" style="isolation:isolate"/>
  <path d="m142.34 225.96h20v5h-20z" fill="#ebdbb2" style="isolation:isolate"/>
  <path d="m171.5 133.25v58h-29v7.25h65.25v-7.25h-29v-36.25h29v-7.25h-29v-14.5zm-108.75 0v36.25h21.75v7.25h-36.25v7.25h36.25v14.5h7.25v-14.5h36.25v-7.25h-36.25v-7.25h21.75v-36.25zm7.25 7.25h36.25v7.25h-36.25zm0 14.5h36.25v7.25h-36.25zm87-65.235v21.73h15.738c4.7488 0 8.2605-0.97603 10.532-2.9281 2.3019-1.982 3.4528-4.9971 3.4528-9.0471 0-4.079-1.1509-4.9037-3.4528-6.8268-2.272-1.9521-5.7837-2.9281-10.532-2.9281h-15.738m0-29.01v21.842h16.094c4.3119 0 7.762-0.80113 9.86-2.4034 2.127-1.6322 3.19-6.2848 3.1909-9.6062 0-3.2924-1.0639-5.7538-3.1909-7.3859-2.098-1.6322-5.5481-2.4469-9.86-2.4469zm-7.25-7.2554h22.551c6.7298 0 11.916 1.3983 15.558 4.1959 3.6422 2.7967 5.4629 6.7742 5.4629 11.931 0 3.992-0.93254 9.3443-2.7976 11.704-1.8642 2.3599-4.6028 3.8316-8.2161 4.4134 9.0408 2.2448 13.519 8.4925 13.723 14.737 0 5.8272-1.9811 10.329-5.9441 13.505-3.9621 3.1755-9.5999 4.7632-16.913 4.7632h-23.425zm-50.961 36.77c-6.2241-17.993-10.015-27.289-10.664-29.52 0 0-3.2308 9.2963-10.399 29.52zm10.134 28.48-7.6551-22.096h-26.108l-7.9206 22.096h-7.7883l25.134-65.25h7.8327l24.382 65.25z" fill="#ebdbb2" style="isolation:isolate"/>
  <path d="m91 12c-72 0-85 15-85 87v56c0 70 13 85 85 85h74c72 0 85-15 85-85v-56c0-72-13-87-85-87zm0 4h74c68 0 80 15 80 83v56c0 66-12 81-80 81h-74c-68 0-80-15-80-81v-56c0-68 12-83 80-83z" fill="url(#linearGradient31)" style="isolation:isolate"/>
</svg>
